svgs/sharp-solid/square-dashed.svg

<svg xmlns="http://www.w3.org/2000/svg" viewBox="0 0 448 512"><!--! Font Awesome Pro 6.6.0 by @fontawesome - https://fontawesome.com License - https://fontawesome.com/license (Commercial License) Copyright 2024 Fonticons, Inc. --><path d="M32 32l96 0 0 64L64 96l0 64L0 160 0 64 0 32l32 0zM0 192l64 0 0 128L0 320 0 192zm384 0l64 0 0 128-64 0 0-128zm64-32l-64 0 0-64-64 0 0-64 96 0 32 0 0 32 0 96zm0 192l0 96 0 32-32 0-96 0 0-64 64 0 0-64 64 0zM64 352l0 64 64 0 0 64-96 0L0 480l0-32 0-96 64 0zM288 480l-128 0 0-64 128 0 0 64zM160 96l0-64 128 0 0 64L160 96z"/></svg>

<svg xmlns="http://www.w3.org/2000/svg" viewBox="0 0 448 512"><!--! Font Awesome Pro 6.4.0 by @fontawesome - https://fontawesome.com License - https://fontawesome.com/license (Commercial License) Copyright 2023 Fonticons, Inc. --><path d="M32 32h96V96H64v64H0V64 32H32zM0 192H64V320H0V192zm384 0h64V320H384V192zm64-32H384V96H320V32h96 32V64v96zm0 192v96 32H416 320V416h64V352h64zM64 352v64h64v64H32 0V448 352H64zM288 480H160V416H288v64zM160 96V32H288V96H160z"/></svg>
